epam-assets/icon-sources/18/content-clear.svg

<svg width="18" height="18" viewBox="0 0 18 18" fill="none" xmlns="http://www.w3.org/2000/svg">
<g id="18/content-clear">
<path id="icon" fill-rule="evenodd" clip-rule="evenodd" d="M9 1.5C4.8525 1.5 1.5 4.8525 1.5 9C1.5 13.1475 4.8525 16.5 9 16.5C13.1475 16.5 16.5 13.1475 16.5 9C16.5 4.8525 13.1475 1.5 9 1.5ZM12.75 11.6925L11.6925 12.75L9 10.0575L6.3075 12.75L5.25 11.6925L7.9425 9L5.25 6.3075L6.3075 5.25L9 7.9425L11.6925 5.25L12.75 6.3075L10.0575 9L12.75 11.6925Z" fill="#6C6F80"/>
</g>
</svg>

<svg xmlns="http://www.w3.org/2000/svg" width="18" height="18" fill="none" viewBox="0 0 18 18">
  <path fill="#6C6F80" fill-rule="evenodd" d="M9 1.5A7.493 7.493 0 0 0 1.5 9c0 4.148 3.353 7.5 7.5 7.5 4.148 0 7.5-3.352 7.5-7.5 0-4.147-3.352-7.5-7.5-7.5Zm3.75 10.193-1.057 1.057L9 10.057 6.308 12.75 5.25 11.693 7.942 9 5.25 6.308 6.308 5.25 9 7.942l2.693-2.692 1.057 1.058L10.057 9l2.693 2.693Z" clip-rule="evenodd"/>
</svg>
